X: 15917
T: Granddaughter's Dream, The
R: waltz
M: 3/4
K: Dmajor
|:DE FG AB|A2 E2 Bc|d2 B2 ed|c2 A2 E2 }
d2 e2 f2|ef g2 e2|d2- de dB|c2 AG FE|
D2- Dd cd|A2 D2 DE|F2 FG A2|A2 E2 E2|
f2 ed cd|A2- Ad cd|A2 d2 c2|1 d6:|2 d4 e2||
|:=f2- fe d2|e2- e=f g2|a2 g=f eg|=f2 d2- de|
=f2 e2 d2|e2 A2 A2|g2 A2 A2|a2 A2 A2|
f2 ed cd|A4 ed|cd ef ge|f2 B2 a2|
g2 fg ed|e2 A2- AG|FA df ec|1 d4 e2:|2 d6||

